X:1
T:Title
%%score { ( 1 3 ) | 2 }
L:1/8
Q:1/4=100
M:3/4
K:Eb
V:1 treble nm="Grand Piano"
V:3 treble 
V:2 bass 
V:1
 G4 G2 | G4 [FG]2 | [EG]4 E2 | E6 | A4 A2 | A4 A2 | A4 F2 | F6 | B4 G2 | F4 E2 | F4 G2 | A6 | %12
w: Ralph~E.~Stewart *||||||||||||
 [GB]4 [EG]2 | [=EB]4 [EG]2 | F6 | E6 |] %16
w: ||||
V:2
 [E,B,E]4 [E,B,E]2 | [D,=B,]4 [D,B,]2 | [C,C]4 [C,G,]2 | [G,C]6 | [F,C]4 [F,CF]2 | %5
 [F,CE]4 [F,CE]2 | [F,B,D]4 [F,B,D]2 | [A,B,D]6 | [G,B,E]4 [E,B,E]2 | [G,B,D]4 [A,C]2 | %10
 [A,CE]4 [G,C=E]2 | [F,CF]6 | [E,E]4 [E,B,]2 | [C,C]4 [C,B,]2 | [F,A,E]4 [B,,A,]2 | [E,G,]6 |] %16
V:3
 x6 | x6 | x6 | x6 | x6 | x6 | x6 | x6 | x6 | x6 | x6 | x6 | x6 | x6 | z2 z2 D2 | x6 |] %16

